packages/foundations/assets/icons/functional/images/technology/wifi_16.svg

<svg width="16" height="16" viewBox="0 0 16 16" fill="none" xmlns="http://www.w3.org/2000/svg">
<g clip-path="url(#clip0_187_649)">
<path fill-rule="evenodd" clip-rule="evenodd" d="M1.59998 5.50696C1.59998 5.28146 1.67498 5.10606 1.82498 4.93068C3.54998 3.22688 5.52498 2.40002 8.04998 2.40002C10.325 2.40002 12.525 3.30204 14.15 4.93068C14.3 5.08102 14.4 5.30651 14.4 5.50696C14.4 5.98302 14.05 6.30875 13.6 6.30875C13.4 6.30875 13.2 6.23358 13.025 6.08325C11.7 4.73023 9.92498 3.97856 8.04998 3.97856C6.07498 3.97856 4.29998 4.70517 2.94998 6.05819C2.79998 6.20853 2.59998 6.30875 2.39998 6.30875C2.04998 6.30875 1.59998 6.03314 1.59998 5.50696ZM4.54998 8.28817C4.54998 8.08772 4.62498 7.86222 4.79998 7.71188C5.72498 6.83493 6.72498 6.38392 8.04998 6.38392C9.27498 6.38392 10.425 6.85998 11.3 7.71188C11.475 7.88727 11.525 8.08772 11.525 8.28817C11.525 8.66401 11.275 9.08996 10.725 9.08996C10.525 9.08996 10.325 9.01479 10.175 8.86446C9.59998 8.31323 8.84998 7.9875 8.04998 7.9875C7.24998 7.9875 6.44998 8.31323 5.92498 8.86446C5.77498 9.01479 5.57498 9.08996 5.34998 9.08996C4.87498 9.08996 4.54998 8.66401 4.54998 8.28817ZM6.39998 12C6.39998 11.125 7.09998 10.4 7.99998 10.4C8.87498 10.4 9.59998 11.1 9.59998 12C9.59998 12.875 8.89998 13.6 7.99998 13.6C7.12498 13.6 6.39998 12.9 6.39998 12Z" fill="#1A1C1F"/>
</g>
<defs>
<clipPath id="clip0_187_649">
<rect width="16" height="16" fill="white"/>
</clipPath>
</defs>
</svg>

<svg xmlns="http://www.w3.org/2000/svg" width="16" height="16" fill="none"><g clip-path="url(#a)"><path fill="#1A1C1F" fill-rule="evenodd" d="M1.6 5.507c0-.226.075-.4.225-.576C3.55 3.227 5.525 2.4 8.05 2.4a8.62 8.62 0 0 1 6.1 2.53c.15.151.25.377.25.577 0 .476-.35.802-.8.802a.88.88 0 0 1-.575-.226A6.93 6.93 0 0 0 8.05 3.98c-1.975 0-3.75.726-5.1 2.08-.15.15-.35.25-.55.25-.35 0-.8-.276-.8-.802m2.95 2.781c0-.2.075-.426.25-.576.925-.877 1.925-1.328 3.25-1.328 1.225 0 2.375.476 3.25 1.328a.77.77 0 0 1 .225.576c0 .376-.25.802-.8.802-.2 0-.4-.075-.55-.226a3.07 3.07 0 0 0-2.125-.877c-.8 0-1.6.326-2.125.877a.8.8 0 0 1-.575.226c-.475 0-.8-.426-.8-.802M6.4 12c0-.875.7-1.6 1.6-1.6.875 0 1.6.7 1.6 1.6 0 .875-.7 1.6-1.6 1.6-.875 0-1.6-.7-1.6-1.6" clip-rule="evenodd"/></g><defs><clipPath id="a"><path fill="#fff" d="M0 0h16v16H0z"/></clipPath></defs></svg>
